X:1
T:Eternal Doom
M:4/4
L:1/4
K:C
 A,/2A,/2 A, E| E4-| E A,/2A,/2 C C| A,4-| A, E/2E/2 E E| A4-| A E G G|\
 E4-| E E/2E/2 E E/2E/2| A4-| A C E C/2C/2| A,4-| A, A, C/2C/2 E| E4-|\
 E E/2E/2E/2-D/2 C| A,4-| A,||
